Dominus_Funeral/22/devices/pda.svg

<svg xmlns="http://www.w3.org/2000/svg" width="24" height="24"><defs><linearGradient id="d"><stop offset="0" stop-color="#010000"/><stop offset="1" stop-opacity="0"/></linearGradient><linearGradient id="a"><stop offset="0" stop-color="#000008"/><stop offset="1" stop-color="#0b0000" stop-opacity="0"/></linearGradient><linearGradient id="b"><stop offset="0" stop-color="#1a1a1a"/><stop offset="1" stop-color="#4d4d4d"/></linearGradient><linearGradient id="c"><stop offset="0" stop-color="#fff"/><stop offset="1" stop-color="#b3b3b3"/></linearGradient></defs><path d="M4.506.47c-.958 0-1.73.769-1.73 1.728v16.72c0 2.554 2.57 4.612 5.764 4.612h6.92c3.193 0 5.764-2.058 5.764-4.613V2.197c0-.958-.772-1.727-1.73-1.727H16.61v1.152h-1.15V.47zM5.66 2.775h12.68a.575.575 0 0 1 .58.578v13.834a.575.575 0 0 1-.58.578H5.659a.577.577 0 0 1-.577-.578V3.353a.575.575 0 0 1 .577-.578zm6.339 16.044a1.73 1.73 0 0 1 1.73 1.73A1.73 1.73 0 0 1 12 22.28a1.73 1.73 0 0 1-1.73-1.728 1.73 1.73 0 0 1 1.73-1.73zm-5.186.002a1.153 1.153 0 0 1 1.152 1.153 1.153 1.153 0 0 1-1.152 1.153 1.153 1.153 0 0 1-1.153-1.153 1.153 1.153 0 0 1 1.153-1.153zm10.376 0a1.153 1.153 0 0 1 1.153 1.153 1.153 1.153 0 0 1-1.153 1.153 1.153 1.153 0 0 1-1.152-1.153 1.153 1.153 0 0 1 1.152-1.153z" fill="#1a1a1a"/></svg>

<?xml version="1.0" encoding="UTF-8" standalone="no"?>
<svg
   xmlns:dc="http://purl.org/dc/elements/1.1/"
   xmlns:cc="http://creativecommons.org/ns#"
   xmlns:rdf="http://www.w3.org/1999/02/22-rdf-syntax-ns#"
   xmlns:svg="http://www.w3.org/2000/svg"
   xmlns="http://www.w3.org/2000/svg"
   xmlns:sodipodi="http://sodipodi.sourceforge.net/DTD/sodipodi-0.dtd"
   xmlns:inkscape="http://www.inkscape.org/namespaces/inkscape"
   width="24"
   height="24"
   version="1.1"
   id="svg26"
   sodipodi:docname="pda.svg"
   inkscape:version="0.92.4 (5da689c313, 2019-01-14)">
  <metadata
     id="metadata30">
    <rdf:RDF>
      <cc:Work
         rdf:about="">
        <dc:format>image/svg+xml</dc:format>
        <dc:type
           rdf:resource="http://purl.org/dc/dcmitype/StillImage" />
        <dc:title></dc:title>
      </cc:Work>
    </rdf:RDF>
  </metadata>
  <sodipodi:namedview
     pagecolor="#ffffff"
     bordercolor="#666666"
     borderopacity="1"
     objecttolerance="10"
     gridtolerance="10"
     guidetolerance="10"
     inkscape:pageopacity="0"
     inkscape:pageshadow="2"
     inkscape:window-width="1138"
     inkscape:window-height="480"
     id="namedview28"
     showgrid="false"
     inkscape:zoom="9.8333333"
     inkscape:cx="1.0677966"
     inkscape:cy="12"
     inkscape:window-x="0"
     inkscape:window-y="25"
     inkscape:window-maximized="0"
     inkscape:current-layer="svg26" />
  <defs
     id="defs22">
    <linearGradient
       id="d">
      <stop
         offset="0"
         stop-color="#010000"
         id="stop2" />
      <stop
         offset="1"
         stop-opacity="0"
         id="stop4" />
    </linearGradient>
    <linearGradient
       id="a">
      <stop
         offset="0"
         stop-color="#000008"
         id="stop7" />
      <stop
         offset="1"
         stop-color="#0b0000"
         stop-opacity="0"
         id="stop9" />
    </linearGradient>
    <linearGradient
       id="b">
      <stop
         offset="0"
         stop-color="#1a1a1a"
         id="stop12" />
      <stop
         offset="1"
         stop-color="#4d4d4d"
         id="stop14" />
    </linearGradient>
    <linearGradient
       id="c">
      <stop
         offset="0"
         stop-color="#fff"
         id="stop17" />
      <stop
         offset="1"
         stop-color="#b3b3b3"
         id="stop19" />
    </linearGradient>
  </defs>
  <path
     d="m 4.506,0.47 c -0.958,0 -1.73,0.769 -1.73,1.728 v 16.72 c 0,2.554 2.57,4.612 5.764,4.612 h 6.92 c 3.193,0 5.764,-2.058 5.764,-4.613 V 2.197 c 0,-0.958 -0.772,-1.727 -1.73,-1.727 H 16.61 V 1.622 H 15.46 V 0.47 Z M 5.66,2.775 h 12.68 a 0.575,0.575 0 0 1 0.58,0.578 v 13.834 a 0.575,0.575 0 0 1 -0.58,0.578 H 5.659 A 0.577,0.577 0 0 1 5.082,17.187 V 3.353 A 0.575,0.575 0 0 1 5.659,2.775 Z m 6.339,16.044 a 1.73,1.73 0 0 1 1.73,1.73 A 1.73,1.73 0 0 1 12,22.28 1.73,1.73 0 0 1 10.27,20.552 1.73,1.73 0 0 1 12,18.822 Z M 6.813,18.821 A 1.153,1.153 0 0 1 7.965,19.974 1.153,1.153 0 0 1 6.813,21.127 1.153,1.153 0 0 1 5.66,19.974 1.153,1.153 0 0 1 6.813,18.821 Z m 10.376,0 a 1.153,1.153 0 0 1 1.153,1.153 1.153,1.153 0 0 1 -1.153,1.153 1.153,1.153 0 0 1 -1.152,-1.153 1.153,1.153 0 0 1 1.152,-1.153 z"
     id="path24"
     inkscape:connector-curvature="0"
     style="fill:#1a1a1a" />
</svg>
